!!!!SEGMENT: pl-kk--kk-i-3--005-005_anonim--officium-de-assumptione-de-bmv-diffusa-est-gratia.krn
!!!cenid: 15xx:574
!!!COM: Anonim
!!!COM-rismID: pe30004985
!!!CDT:
!!!CNT:
!!!OPR: Officium de Assumptione de BMV
!!!OTL: Diffusa est gratia
!!!OMV: 005
!!!PDT:
!!!AGN:
!!!SMS-siglum: PL-Kk
!!!SMS-shelfmark: Kk.I.3
!!!SMS-shelfwork: 005-005 M
!!!SMS-variant:
!!!SMS-altvar:
!!!NIFC-rismSourceID: 1001145497
!!!NIFC-islandoraID: pl-kk:1170
!!!URL-pdf-islandora: https://repozytorium.nifc.pl/islandora/object/pl-kk%3A1170/datastream/PDF/view
!!!URL-scan: https://polish.musicsources.pl/pl/lokalizacje/galeria/rekopisy/5919 @EN{Scan on Polish Music Sources Website} @PL{Skany w portalu Dziedzictwo Muzyki Polskiej w otwartym dostępie}
!!!ONB-nifc: UWAGA: Discantus (s. 14v-15v, skan 0017-0018), Tenor (s. 12v-13r, skan 0185), Bassus (s. 11v-12v, skan 0315-0316). Następna część w Tenorze: Sanctus
!!!AIN: 1 bass 1 calto 1 tenor
!!!key:
**kern	**text	**kern	**text	**kern	**text
*part3	*part3	*part2	*part2	*part1	*part1
*staff3	*staff3	*staff2	*staff2	*staff1	*staff1
*I"Bassus	*	*I"Tenor	*	*I"Discantus	*
*I'B	*	*I'T	*	*I'A	*
*Ibass	*	*Itenor	*	*Icalto	*
*ICvox	*	*ICvox	*	*ICvox	*
*clefF4	*	*clefC4	*	*clefC3	*
*k[]	*	*k[]	*	*k[]	*
*C:	*	*C:	*	*C:	*
*M2/1	*	*M2/1	*	*M2/1	*
*met(C)	*	*met(C)	*	*met(C)	*
=1-	=1-	=1-	=1-	=1-	=1-
1A\	Di-	1D/	Di-	1d\	Di-
*2\right	*	*	*	*	*
2A\	.	1F/	ffu-	2c/	.
1D\	-ffu-	.	.	1f\	-ffu-
=2-	=2-	=2-	=2-	=2-	=2-
.	.	1F/	.	.	.
2F/	.	.	.	2d/	.
1E\	.	1G/	.	1e\	-ſa
=3-	=3-	=3-	=3-	=3-	=3-
*	*	*lig	*	*	*
1D\	.	1A\	.	1f\	.
2BB/	.	1G/	.	2d/	eſt
2C/	.	.	.	2e/	.
*	*	*Xlig	*	*	*
=4-	=4-	=4-	=4-	=4-	=4-
2AA/	.	1A\	.	1c\	.
1A\	.	.	.	.	.
.	.	1F/	-sa	2c/	.
2A\	-sa	.	.	1f\	.
=5-	=5-	=5-	=5-	=5-	=5-
*	*	*lig	*	*2\right	*
2D/	eſt	1A\	.	.	.
*custos:E	*	*	*	*	*
2F/	.	.	.	2f\	.
*	*	*	*	*custos:e	*
!LO:LB:g=original	!	!	!	!	!
1E\	.	1G/	.	1g\	.
*	*	*Xlig	*	*	*
!	!	!	!	!LO:PB:g=original	!
=6-	=6-	=6-	=6-	=6-	=6-
2C/	.	1G/	eſt	2e/	.
2BB/	.	.	.	2d/	.
1AA/	.	1A\	gra-	1c\	gra-
=7-	=7-	=7-	=7-	=7-	=7-
2AA/	.	1c\	.	1e\	.
1A\	grati-	.	.	.	.
*	*	*lig	*	*	*
.	.	1d\	.	2f\	.
2G\	.	.	.	1g\	.
=8-	=8-	=8-	=8-	=8-	=8-
1A\	.	1c\	.	.	.
.	.	.	.	2f\	.
*	*	*Xlig	*	*	*
*lig	*	*lig	*	*	*
1G\	.	1d\	.	1g\	.
=9-	=9-	=9-	=9-	=9-	=9-
*	*	*custos:c	*	*	*
1C/	.	1c\	.	0e\	.
*Xlig	*	*	*	*	*
*lig	*	*Xlig	*	*	*
!	!	!LO:LB:g=original	!	!	!
1C/	a	1c\	ci-	.	.
=10-	=10-	=10-	=10-	=10-	=10-
1GG/	.	1B\	.	1d\	-ti-
*Xlig	*	*	*	*	*
2D/	.	1A\	.	2d/	.
2C/	.	.	.	2e\	-a
=11-	=11-	=11-	=11-	=11-	=11-
*	*	*lig	*	*	*
1D\	.	1A\	.	1d\	.
2GG/	.	1G/	-a	1B/	.
2G\	in	.	.	.	.
*	*	*Xlig	*	*	*
=12-	=12-	=12-	=12-	=12-	=12-
2F/	la-	1A\	in	2c/	in
*custos:F	*	*	*	*	*
2D/	.	.	.	1f\	.
*	*	*lig	*	*	*
!LO:LB:g=original	!	!	!	!	!
1F\	-bi-	1A\	la-	.	.
.	.	.	.	2f\	.
=13-	=13-	=13-	=13-	=13-	=13-
2C/	.	1G/	.	2e\	.
*	*	*	*	*custos:f	*
2E/	.	.	.	1g\	la-
*	*	*Xlig	*	*	*
1D\	.	1A\	bi-	.	.
!	!	!	!	!LO:LB:g=original	!
.	.	.	.	2f\	.
=14-	=14-	=14-	=14-	=14-	=14-
1C/	.	1c\	.	1g\	.
*	*	*lig	*	*	*
2AA/	-is	1c\	is	1c\	.
1A\	.	.	.	.	.
=15-	=15-	=15-	=15-	=15-	=15-
.	.	1A\	.	2c/	.
*	*	*Xlig	*	*	*
2F\	.	.	.	2d/	.
1E\	.	1c\	.	1e\	.
=16-	=16-	=16-	=16-	=16-	=16-
*	*	*lig	*	*	*
1D\	.	1d\	.	1f\	.
*lig	*	*	*	*	*
1F\	.	1c\	.	1c\	-bi-
*	*	*Xlig	*	*	*
=17-	=17-	=17-	=17-	=17-	=17-
*	*	*lig	*	*	*
1C/	.	1c\	.	1e\	-js
*Xlig	*	*X	*	*	*
1G\	.	1B\	.	1g\	.
*	*	*Xlig	*	*	*
=18-	=18-	=18-	=18-	=18-	=18-
*	*	*lig	*	*	*
2E/	.	1c\	.	2g\	.
2C/	.	.	.	1e\	.
1D\	.	1A\	.	.	.
.	.	.	.	1d\	.
=19-	=19-	=19-	=19-	=19-	=19-
1E\	.	1G/	.	.	.
.	.	.	.	2c/	.
*	*	*Xlig	*	*	*
1D\	tu-	1A\	.	1d\	.
=20-	=20-	=20-	=20-	=20-	=20-
*custos:GG	*	*	*	*	*
1D\	.	1A\	.	1d\	.
*	*	*custos:G	*	*	*
!LO:PB:g=original	!	!	!	!	!
1GG/	-is	1G/	tu-	1B/	.
!	!	!LO:LB:g=original	!	!	!
=21-	=21-	=21-	=21-	=21-	=21-
*	*	*	*	*custos:e	*
0C/	tu-	1G/	-is	1e\	.
*	*	*lig	*	*	*
!	!	!	!	!LO:LB:g=original	!
.	.	1c\	.	2e\	.
.	.	.	.	1g\	tu-
=22-	=22-	=22-	=22-	=22-	=22-
1D\	.	1A\	.	.	.
.	.	.	.	2f\	.
*lig	*	*	*	*	*
1E\	.	1G/	.	1g\	.
*	*	*Xlig	*	*	*
=23-	=23-	=23-	=23-	=23-	=23-
1C/	.	1G/	.	1e\	.
*Xlig	*	*	*	*	*
*lig	*	*	*	*	*
1F\	-is	1A\	.	2c/	.
.	.	.	.	1f\	.
=24-	=24-	=24-	=24-	=24-	=24-
1C/	.	1G/	.	.	.
.	.	.	.	2e/	-is
*Xlig	*	*	*	*	*
*lig	*	*	*	*	*
1D\	pro-	1F/	.	1f\,<	.
=25-	=25-	=25-	=25-	=25-	=25-
1A\	.	1D/	pro-	1f\	pro-
*Xlig	*	*	*	*	*
*lig	*	*	*	*	*
1A\	-pter-	1A\	.	1e\	-pter-
=26-	=26-	=26-	=26-	=26-	=26-
1c\	.	1A\	-pter-	2c/	.
.	.	.	.	1e\	.
*Xlig	*	*	*	*	*
1A\	-e-	1c\	.	.	.
.	.	.	.	2f\	.
=27-	=27-	=27-	=27-	=27-	=27-
*lig	*	*lig	*	*	*
1G\	.	1d\	.	1g\	.
1C/	.	1c\	.	1e\	.
*Xlig	*	*Xlig	*	*	*
=28-	=28-	=28-	=28-	=28-	=28-
1F\	.	1c\	-e-	1f\	e-
*	*	*lig	*	*	*
*	*	*	*	*custos:d	*
2D/	.	1d\	.	2f\	.
!	!	!	!	!LO:LB:g=original	!
2G\	.	.	.	2d/	.
=29-	=29-	=29-	=29-	=29-	=29-
2E/	.	1c\	.	2e/	.
1F\	.	.	.	1c\	-a
*	*	*Xlig	*	*	*
.	.	1c\	-a	.	.
*custos:G	*	*	*	*	*
2C/	.	.	.	1g\	.
!LO:LB:g=original	!	!	!	!	!
=30-	=30-	=30-	=30-	=30-	=30-
*	*	*lig	*	*	*
1G\	.	1d\	.	.	.
.	.	.	.	2g\	.
2C/	.	1c\	.	2e/	.
1F\	.	.	.	2c/	.
=31-	=31-	=31-	=31-	=31-	=31-
.	.	1G/	.	2d/	.
2E/	.	.	.	2c/	.
*	*	*Xlig	*	*	*
*	*	*custos:G	*	*	*
1D\	-a	1A\	.	1d\	.
!	!	!LO:LB:g=original	!	!	!
=32-	=32-	=32-	=32-	=32-	=32-
2GG/	Be-	1G/	be-	2d/	.
1C/	.	.	.	1e\	be-
*	*	*lig	*	*	*
.	.	1c\	.	.	.
2AA/	-ne-	.	.	2c/	-ne-
=33-	=33-	=33-	=33-	=33-	=33-
1D\	.	1A\	.	1f\	.
*	*	*Xlig	*	*	*
1E\	.	1G/	-ne-	1g\	.
=34-	=34-	=34-	=34-	=34-	=34-
2C/	.	1G/	-di-	2e/	.
2BB/	.	.	.	2d/	-di-
1AA/	.	1A\	.	1c\	-xit
=35-	=35-	=35-	=35-	=35-	=35-
*	*	*	*	*custos:c	*
1A\	-di-	1c\	.	2A/	.
!	!	!	!	!LO:LB:g=original	!
.	.	.	.	1c\	.
*	*	*lig	*	*	*
1G\	.	1d\	.	.	.
.	.	.	.	2B/	.
=36-	=36-	=36-	=36-	=36-	=36-
2E/	.	1c\	.	1c\	te
1F\	.	.	.	.	.
*	*	*Xlig	*	*	*
.	.	1c\	-xit	2c/	.
2C/	.	.	.	2g\	.
=37-	=37-	=37-	=37-	=37-	=37-
2F/	.	1c\	te	2f\	.
*custos:G	*	*	*	*	*
2A\	.	.	.	2e\	.
!LO:LB:g=original	!	!	!	!	!
*clefF3	*	*	*	*	*
*lig	*	*lig	*	*	*
1G\	-xit	1d\	.	0g\	De-
=38-	=38-	=38-	=38-	=38-	=38-
1C/	.	1c\	.	.	.
*Xlig	*	*Xlig	*	*	*
1C/	te	1c\	de-	0e\	-us
=39-	=39-	=39-	=39-	=39-	=39-
1C/	De-	1c\	-us	.	.
*	*	*lig	*	*	*
2C/	-us	1c\	in	2e\	in
1F\	in	.	.	2f\	.
=40-	=40-	=40-	=40-	=40-	=40-
.	.	1G/	.	2d/	.
2E/	.	.	.	2e/	.
*	*	*Xlig	*	*	*
1D/	.	1A\	.	1f\	.
=41-	=41-	=41-	=41-	=41-	=41-
2C/	.	1c\	.	2e\	.
1F\	.	.	.	1A/	.
*	*	*custos:d	*	*	*
!	!	!LO:SIC:l:v:t=ae-	!	!	!
.	.	1c\	e-	.	.
2E/	ae-	.	.	1c\	ae-
!	!	!LO:LB:g=original	!	!	!
=42-	=42-	=42-	=42-	=42-	=42-
1D/	.	1d\	.	.	.
*	*	*	*	*custos:c	*
.	.	.	.	2B/	.
*	*	*lig	*	*	*
!	!	!	!	!LO:PB:g=original	!
1C/	.	1e\	.	1c\	.
=43-	=43-	=43-	=43-	=43-	=43-
2AA/	.	1c\	.	0e\	.
1A\	.	.	.	.	.
*	*	*Xlig	*	*	*
*	*	*lig	*	*	*
.	.	1c\	ter-	.	.
1c\	-ter-	.	.	.	.
=44-	=44-	=44-	=44-	=44-	=44-
.	.	1G/	.	1g\	.
2B\	.	.	.	.	.
*	*	*Xlig	*	*	*
1c\	.	1A\	.	0e\	.
=45-	=45-	=45-	=45-	=45-	=45-
*custos:F	*	*	*	*	*
1A\	.	1c\	.	.	.
!LO:LB:g=original	!	!	!	!	!
2F/	.	1c\	.	2f\	-ter-
2E/	.	.	.	1g\	.
=46-	=46-	=46-	=46-	=46-	=46-
1D/	.	1d\	.	.	.
.	.	.	.	2f\	.
*	*	*lig	*	*	*
1C/	.	1e\	.	1g\	.
=47-	=47-	=47-	=47-	=47-	=47-
2AA/	.	1c\	.	2f/	.
1A\	.	.	.	1e\	.
*	*	*Xlig	*	*	*
*	*	*lig	*	*	*
.	.	1c\	.	.	.
1c\	.	.	.	2c/	.
=48-	=48-	=48-	=48-	=48-	=48-
.	.	1G/	.	2d/	.
2B\	.	.	.	2g/	.
*	*	*Xlig	*	*	*
2c\	.	1c\	.	1e\	.
2C/	.	.	.	.	.
=49-	=49-	=49-	=49-	=49-	=49-
2D/	.	1B\	.	2d/	.
2E/	.	.	.	2g\	.
1F\	.	1A\	.	2c/	.
.	.	.	.	2d/	.
=50-	=50-	=50-	=50-	=50-	=50-
*	*	*	*	*custos:c	*
1E/	.	1G/	.	0e\	.
2C/	.	1G/	-num	.	.
2E/	-num	.	.	.	.
!	!	!	!	!LO:LB:g=original	!
=51-	=51-	=51-	=51-	=51-	=51-
*lig	*	*	*	*	*
1F\	.	1A\	.	2c/	.
.	.	.	.	1f\	-num
1C/	.	1G/	.	.	.
.	.	.	.	2e/	.
*Xlig	*	*	*	*	*
=52-	=52-	=52-	=52-	=52-	=52-
*custos:B	*	*custos:D	*	*	*
1c\	et	1F/	.	1f\,<	.
!LO:LB:g=original	!	!LO:PB:g=original	!	!	!
2B-X\	.	1D/	et	1f\	.
1A\	.	.	.	.	.
=53-	=53-	=53-	=53-	=53-	=53-
.	.	1A\	.	1e\	et
2A\	in	.	.	.	.
2F/	.	1A\	in	1f\	in
2D/	ſe-	.	.	.	.
=54-	=54-	=54-	=54-	=54-	=54-
2E/	.	1c\	.	2g\	.
2F/	.	.	.	2f\	.
1G\	.	1B\	.	2d/	.
.	.	.	.	1g\	.
=55-	=55-	=55-	=55-	=55-	=55-
1D/	.	1A\	.	.	.
.	.	.	.	2f\	.
2GG/	.	1G/	se-	1g\	Se
2G/	.	.	.	.	.
=56-	=56-	=56-	=56-	=56-	=56-
2F/	-cu-	1c\	.	2c/	.
2E/	.	.	.	1g\	.
1A\	lum	1c\	-cu-	.	.
.	.	.	.	2f\	.
=57-	=57-	=57-	=57-	=57-	=57-
*	*	*lig	*	*	*
1G\	.	1d\	.	1g\	.
*	*	*	*	*custos:a	*
2C/	.	1c\	.	2e/	.
!	!	!	!	!LO:LB:g=original	!
2F/	.	.	.	2a\	.
*	*	*Xlig	*	*	*
=58-	=58-	=58-	=58-	=58-	=58-
2E/	.	1c\	-lum	2g\	cu-
*custos:c	*	*	*	*	*
1A\	.	.	.	1e\	-lum
.	.	1c\	se-	.	.
!LO:PB:g=original	!	!	!	!	!
*clefF4	*	*	*	*	*
1c\	.	.	.	2f\	.
=59-	=59-	=59-	=59-	=59-	=59-
*	*	*lig	*	*	*
.	.	1d\	.	1g\	.
2Bny\	Se-	.	.	.	.
2c\	.	1c\	.	2e/	.
2A\	.	.	.	2f/	.
*	*	*Xlig	*	*	*
=60-	=60-	=60-	=60-	=60-	=60-
*	*	*lig	*	*	*
1G\	.	1d\	.	1g\	.
2E/	.	1c\	.	2g\	.
1F\	.	.	.	2c/	.
=61-	=61-	=61-	=61-	=61-	=61-
.	.	1G/	.	2d/	.
2E/	.	.	.	2e/	.
*	*	*Xlig	*	*	*
1D\	.	1A\	.	1f\	.
=62-	=62-	=62-	=62-	=62-	=62-
*	*	*custos:c	*	*	*
1C/	.	1c\	.	1e\	Se-
!	!	!LO:LB:g=original	!	!	!
*	*	*lig	*	*	*
2C/	.	1c\	.	1e\	.
1AA/	.	.	.	.	.
=63-	=63-	=63-	=63-	=63-	=63-
.	.	1A\	.	2e\	.
2D/	.	.	.	2f\	.
*	*	*Xlig	*	*	*
1C/	.	1c\	.	1e\	.
=64-	=64-	=64-	=64-	=64-	=64-
*	*	*lig	*	*	*
*	*	*	*	*custos:d	*
2GG/	.	1d\	.	1g\	.
1G\	.	.	.	.	.
!	!	!	!	!LO:LB:g=original	!
.	.	1B\	.	1d\	.
2G\	.	.	.	.	.
*	*	*Xlig	*	*	*
=65-	=65-	=65-	=65-	=65-	=65-
*	*	*lig	*	*	*
1C/	.	1c\	.	2e/	.
.	.	.	.	1g\	.
*lig	*	*	*	*	*
1D\	.	1A\	.	.	.
.	.	.	.	2f\	.
=66-	=66-	=66-	=66-	=66-	=66-
1E\	.	1G/	.	2g\	.
.	.	.	.	2e/	.
*Xlig	*	*Xlig	*	*lig	*
1D\	cu-	1F/	-cu-	1f\	-cu-
!LO:LB:g=original	!	!	!	!	!
=67-	=67-	=67-	=67-	=67-	=67-
1C/	-li	1G/	.	1e\	.
*	*	*	*	*Xlig	*
1C/	.	1G/	-li	1e\	-li
=68-	=68-	=68-	=68-	=68-	=68-
2GG/	.	1B\	.	1d\	.
2G\	.	.	.	.	.
*	*	*lig	*	*	*
2E/	.	1c\	.	1e\	.
2C/	.	.	.	.	.
=69-	=69-	=69-	=69-	=69-	=69-
2D/	.	1A\	.	2f\	.
2F/	.	.	.	1d\	.
1E\	.	1G/	.	.	.
.	.	.	.	2c/	.
*	*	*Xlig	*	*	*
=70-	=70-	=70-	=70-	=70-	=70-
1D\	.	1A\	.	1d\	.
*lig	*	*	*	*	*
1GG/	.	1B\	.	2d/	.
.	.	.	.	1g\	.
=71-	=71-	=71-	=71-	=71-	=71-
1D\	.	1A\	.	.	.
*	*	*	*	*custos:g	*
.	.	.	.	2f\	.
*Xlig	*	*lig	*	*	*
!	!	!	!	!LO:LB:g=original	!
2E/	.	1G/	.	2g\	.
2C/	.	.	.	2e/	.
=72-	=72-	=72-	=72-	=72-	=72-
1G\	.	1G/	.	1d\	.
1C/	.	[1G/l	.	1c\	.
=73-	=73-	=73-	=73-	=73-	=73-
2BB/	.	0G/_	.	2d/	.
1C/	.	.	.	1e\	.
2C/	.	.	.	2e/	.
=74-	=74-	=74-	=74-	=74-	=74-
0GG/;l	.	0G/]	.	1d\	.
.	.	.	.	1d\;l	.
==	==	==	==	==	==
*-	*-	*-	*-	*-	*-
!!!system-decoration: [(s1,s2,s3)]
!!!RDF**kern: l = terminal long
!!!RDF**kern: < = below
!!!ENC: Marta Opryszak
!!!END: 2021-12-27
!!!EED: Andrzej Borzym
!!!EEV: 2021-12-29
!!!YEC: Copyright 2022 Narodowy Instytut Fryderyka Chopina (https://polishscores.org)
!!!YEM: Licence CC BY 4.0 (https://creativecommons.org/licenses/by/4.0)
